X: 8
T: Cleopha
C: Scott Joplin
%%abc-version 2.0
%%abcx-abcm2ps-target-version 5.9.1 (29 Sep 2008)
%%abc-creator hum2abc beta
%%abcx-conversion-date 2021/07/20 09:00:57
%%abc-copyright 2021 Craig Stuart Sapp
%%abc-edited-by Craig Stuart Sapp
%%abc-edited-by Craig Stuart Sapp
%%abcx-initial-encoding-date 2008/02/23
%%humdrum-veritas 3874371365
%%humdrum-veritas-data 1501801755
%%removed 0's from note length
%%linebreak <none>
%%barnumbers 0
L: 1/8
M: 2/4
N: Derived from cleopha.krn
Q: "Tempo di Marcia." 1/4=116
%%staves {1 2}
V: 1 clef=treble
V: 2 clef=bass
K: F
[V:1] c [I:setbarnb 1]| 
[V:2] z | 
[V:1] ff/g/ ff | 
[V:2] [c4A4F4] | 
[V:1] ff/g/ ff | 
[V:2] [d2B2F2][_d2B2F2] | 
[V:1] ff/g/ ^g/a/b/=b/ | 
[V:2] [c2A2F2][=B2F2_D2] | 
[V:1] c' !accent![cC]!accent![dD]!accent![eE] ]|:  
[V:2] [cGEC] !accent![C,C,,]!accent![D,D,,]!accent![E,E,,] ]|:  
[V:1] [f2F2][^d2^D2] & z [cA] z [cA] | 
[V:2] [F,2F,,2][^F,2^F,,2] | 
[V:1] z c'/=b/ c'/d'/c' & [e4c4B4E4] | 
[V:2] [G,G,,][ECB,] C,[ECB,] | 
[V:1] [f2F2][^d2^D2] & z [cA] z [cA] | 
[V:2] [F,2F,,2][^F,2^F,,2] | 
[V:1] z c/d/ e/f/g & [e4c4B4E4] | 
[V:2] [G,G,,][ECB,] C,[ECB,] | 
[V:1] [b2B2][g2G2] & z [ge] z [ge] | 
[V:2] [G,G,,][ECB,] [CC,][B,B,,] | 
[V:1] z a/^g/ a/=b/c' & [c'4c4] | 
[V:2] [A,A,,][ECA,] [^F,^F,,][^DCA,] | 
[V:1] [g2G2]x2 & z [ec] [=b=B][d'd] | 
[V:2] [G,G,,][ECG,] G,,[F=B,G,] | 
[V:1] [c'c]!accent![cC] !accent![dD]!accent![eE] | 
[V:2] [EC]!accent![C,C,,] !accent![D,D,,]!accent![E,E,,] | 
[V:1] [f2F2][^d2^D2] & z [cA] z [cA] | 
[V:2] [F,2F,,2][^F,2^F,,2] | 
[V:1] z c'/=b/ c'/d'/c' & [e4c4B4E4] | 
[V:2] [G,G,,][ECB,] C,[ECB,] | 
[V:1] [f2F2][^d2^D2] & z [cA] z [cA] | 
[V:2] [F,2F,,2][^F,2^F,,2] | 
[V:1] z c/d/ e/f/g & [e4c4B4E4] | 
[V:2] [G,G,,][ECB,] C,[ECB,] | 
[V:1] [b2B2][g2G2] & z [ge] z [ge] | 
[V:2] [G,G,,][ECB,] [CC,][B,B,,] | 
[V:1] [c'2c2]x2 & z [af][d'2^g2f2d2] | 
[V:2] [A,A,,][FCA,][=B,2=B,,2] | 
[V:1] [f2F2][g2G2] & z [cA] z [cBE] |[1 
[V:2] [C2C,2][C,2C,,2] | 
[V:1] [fcAF]!accent![cC] !accent![dD]!accent![eE] :|][2 
[V:2] [F,F,,]!accent![C,C,,] !accent![D,D,,]!accent![E,E,,] :|]  
[V:1] [f2c2A2F2]c^c ]|: 
[V:2] [F,F,,][CC,] [A,A,,][G,G,,] ]|:  
[V:1] d>=c^F2- | 
[V:2] [^F,^F,,][DCA,] D,,[DCA,] | 
[V:1] F/^F/A/c/ [_eF][dF] | 
[V:2] A,,[DC^F,] D,,[DCA,] | 
[V:1] [dG]>BG2- | 
[V:2] G,,[DB,G,] D,,[DB,G,] | 
[V:1] G/d/g/b/ [d'bgd][^d'bg^d] | 
[V:2] G,,[DB,G,] [D,D,,][_D,_D,,] | 
[V:1] [e'bge]>b[d'2b2g2e2]- | 
[V:2] [C,C,,][ECB,] [E,E,,][ECB,] | 
[V:1] [d'/b/g/e/]e/g/b/ [d'be][d'be] | 
[V:2] [G,G,,][ECB,] C,[ECB,] | 
[V:1] [d'af]>a[c'2a2f2]- | 
[V:2] F,[FCA,] C,[FCA,] | 
[V:1] [c'/a/f/]c'/a/f/ c^c | 
[V:2] F,,[FCA,] [A,A,,][G,G,,] | 
[V:1] d>c^F2- | 
[V:2] [^F,^F,,][DCA,] D,,[DCA,] | 
[V:1] F/^F/A/c/ [_eF][dF] | 
[V:2] A,,[DC^F,] D,,[DCA,] | 
[V:1] [dG]>BG2- | 
[V:2] G,,[DB,G,] D,,[DB,G,] | 
[V:1] G/g/b/d'/ [a'a][g'g] | 
[V:2] G,,[DB,G,] B,,[_DB,G,] | 
[V:1] [f'f]>a [e'e][d'd] | 
[V:2] C,[CA,] =B,,[FD^G,] | 
[V:1] [c'c]>f [b^fc][adc] | 
[V:2] C,[FCA,] [D,D,,][^F,^F,,] | 
[V:1] [a=f=B]>[fB] [ge_B][cBE] |[1 
[V:2] G,,G, C,C | 
[V:1] [f2A2F2]c^c :|][2 
[V:2] [F,F,,][CC,] [A,A,,][G,G,,] :|]  
[V:1] [fAF] !accent![cC]!accent![dD]!accent![eE] || 
[V:2] [F,F,,] !accent![C,C,,]!accent![D,D,,]!accent![E,E,,] ||  
[V:1] [f2F2][^d2^D2] & z [cA] z [cA] | 
[V:2] [F,2F,,2][^F,2^F,,2] | 
[V:1] z c'/=b/ c'/d'/c' & [e4c4B4E4] | 
[V:2] [G,G,,][ECB,] C,[ECB,] | 
[V:1] [f2F2][^d2^D2] & z [cA] z [cA] | 
[V:2] [F,2F,,2][^F,2^F,,2] | 
[V:1] z c/d/ e/f/g & [e4c4B4E4] | 
[V:2] [G,G,,][ECB,] C,[ECB,] | 
[V:1] [b2B2][g2G2] & z [ge] z [ge] | 
[V:2] [G,G,,][ECB,] [CC,][B,B,,] | 
[V:1] z a/^g/ a/=b/c' & [c'4c4] | 
[V:2] [A,A,,][ECA,] [^F,^F,,][_ECA,] | 
[V:1] [g2G2]x2 & z [ec] [=b=B][d'd] | 
[V:2] [G,G,,][ECG,] G,,[F=B,G,] | 
[V:1] [c'c]!accent![cC] !accent![dD]!accent![eE] | 
[V:2] [EC]!accent![C,C,,] !accent![D,D,,]!accent![E,E,,] | 
[V:1] [f2F2][^d2^D2] & z [cA] z [cA] | 
[V:2] [F,2F,,2][^F,2^F,,2] | 
[V:1] z c'/=b/ c'/d'/c' & [e4c4B4E4] | 
[V:2] [G,G,,][ECB,] [C,C,,][ECB,] | 
[V:1] [f2F2][^d2^D2] & z [cA] z [cA] | 
[V:2] [F,2F,,2][^F,2^F,,2] | 
[V:1] z c/d/ e/f/g & [e4c4B4E4] | 
[V:2] [G,G,,][ECB,] C,[ECB,] | 
[V:1] [b2B2][g2G2] & z [ge] z [ge] | 
[V:2] [G,G,,][ECB,] [CC,][B,B,,] | 
[V:1] [c'2c2]x2 & z [af][d'2^g2f2d2] | 
[V:2] [A,A,,][FCA,][=B,2=B,,2] | 
[V:1] [f2F2][g2G2] & z [cA] z [cBE] | 
[V:2] [C2C,2][C,2C,,2] | 
[V:1] [f2c2A2F2][f'c'af] ||  
[V:2] [F,2F,,2][F,,F,,,] ||  
[V:1]  [K:Bb] F [I:setbarnb 55]]|:  
[V:2]  [K:Bb] z ]|:  
[V:1] d>c BF | 
[V:2] B,,[DB,F,] F,,[DB,F,] | 
[V:1] d>c B/F/f/d/ | 
[V:2] B,,[DB,F,] F,,[DB,F,] | 
[V:1] B/e/g/b/ c'/b/B/c/ | 
[V:2] [E,E,,][EB,G,] [E,E,,][EB,_G,] | 
[V:1] [d2F2]-[dF]F | 
[V:2] [B,B,,][DB,F,] F,,[DB,F,] | 
[V:1] d>c BF | 
[V:2] B,,[DB,F,] F,,[DB,F,] | 
[V:1] d>c Bd | 
[V:2] ^F,,[DCA,] G,,[DB,G,] | 
[V:1] d/c/B/G/ =E/G/B/d/ | 
[V:2] =E,[=ECB,] C,[ECB,] | 
[V:1] c2-c F | 
[V:2] [_ECA,F,][F,F,,] [G,G,,][A,A,,] | 
[V:1] d>c BF | 
[V:2] [B,B,,][DB,F,] F,,[DB,F,] | 
[V:1] d>c B/F/f/d/ | 
[V:2] B,,[DB,F,] F,,[DB,F,] | 
[V:1] B/e/g/b/ c'/b/B/c/ | 
[V:2] [E,E,,][EB,G,] [E,E,,][EB,_G,] | 
[V:1] [d2F2]-[dF]B/d/ | 
[V:2] B,,[DB,F,] F,,[DB,F,] | 
[V:1] c>G Bc | 
[V:2] [E,E,,][EB,G,] [_G,_G,,][EB,G,] | 
[V:1] d>g f/d/c/B/ | 
[V:2] [F,F,,][DB,F,] F,,[DB,F,] | 
[V:1] [G=E]>[GE] [F_E][FE] |[1 
[V:2] C,[CB,] F,[CA,] | 
[V:1] [B2D2]-[BD]F :|][2 
[V:2] [B,B,,][A,A,,] [G,G,,][F,F,,] :|]  
[V:1] [BD][f/F/][f/F/] [fF][gG] ]|: 
[V:2] [B,B,,] z [DD,][_D_D,] ]|:  
[V:1] [aeA][^g/e/^G/][a/e/A/]- [a/e/A/][g/e/G/][aeA] | 
[V:2] [CC,][EA,F,] F,,[ECF,] | 
[V:1] [geG][^f/e/^F/][g/e/G/]- [g/e/G/][a/e/A/][g/e/G/][_g/e/_G/] | 
[V:2] A,,[ECF,] F,,[EA,F,] | 
[V:1] [=f2d2=F2]-[f/d/F/]F/B/d/ | 
[V:2] B,,[DB,F,] F,,[DB,F,] | 
[V:1] [f2F2][g'g][f'f] | 
[V:2] B,,[DB,F,] F,,[DB,F,] | 
[V:1] [g'2g2]-[g'/g/]c'/a/g/ | 
[V:2] C,[EA,F,] F,,[EA,F,] | 
[V:1] f2[f'f][e'e] | 
[V:2] A,,[ECF,] F,,[EA,F,] | 
[V:1] [d'2d2]-[d'/d/]b/a/g/ | 
[V:2] B,,[B,F,D,B,,][^C2B,2=E,2] | 
[V:1] f2[fF][gG] | 
[V:2] [DB,D,][F,F,,] [DD,][_D_D,] | 
[V:1] [aeA][^g/e/^G/][a/e/A/]- [a/e/A/][g/e/G/][aeA] | 
[V:2] [CC,][EA,F,] F,,[ECF,] | 
[V:1] [geG][^f/e/^F/][g/e/G/]- [g/e/G/][a/e/A/][g/e/G/][_g/e/_G/] | 
[V:2] A,,[ECF,] F,,[EA,F,] | 
[V:1] [=f2d2=F2]-[f/d/F/]F/B/d/ | 
[V:2] B,,[DB,F,] F,,[DB,F,] | 
[V:1] [f2d2B2F2]-[fdBF]B/d/ | 
[V:2] [B,B,,][_A,_A,,] [G,G,,][F,F,,] | 
[V:1] c>G Bc | 
[V:2] [E,E,,][EB,G,] [_G,_G,,][EB,G,] | 
[V:1] d>g f/d/c/B/ | 
[V:2] [F,F,,][DB,F,] F,,[DB,F,] | 
[V:1] [G=E]>[GE] [F_E][FE] |[1 
[V:2] C,[CB,] F,[CA,] | 
[V:1] [BD][f/F/][f/F/] [fF][gG] :|][2 
[V:2] [B,B,,] z [DD,][_D_D,] :|]  
[V:1] [B2D2][bdB] |]  
[V:2] [B,B,,][F,F,,] [B,,B,,,] |]  


